X:7258
T:The Rakes of Rochester
O:england
M:2/2
L:1/8
Q:240
C:Trad
S:Blowzabella
K:G
dc|:B2 G4 D2|E4 D2 G2|F2 G2 c2 B2|AGFE D2 dc|
B2 G4 D2|E4 D2 G2|F2 G2 BAGF|G4 G2:|
|:A2|B4 A2 d2|B4 A2 d2|B2 G2 F2 G2|AGFE D2 A2|
B4 A2 d2|B4 A2 d2|B2 AG A2 GF|G4 G2:|


